X:4000
T:Dorrington Lads
T:Willy Allan's Favourite
R:Slipjig
C:Trad.
O:England, Northumberland
Z:Paul Hardy's Possible Tunebook 2015 (see www.paulhardy.net). Creative Commons cc by-nc-sa licenced.
M:9/8
L:1/8
Q:3/8=70
K:G
e|"G"dGB dB/c/d/B/ gdB|"G"dGB dB/c/d/B/ cAe|"G"dGB dB/c/d/B/ gdB|"Am"c2A AB/c/d/B/ cA:|
|:e|"G"d2g feg fdg|"Bm"feg fdf ec/d/e/c/|"Bm"d2g feg fdf|"Am"c2A Ac/d/e/c/ cAe|
"Bm"dBg fdg f/e/d/f/g/e/|"Bm"dBg fdf ec/d/e/c/|"Bm"dBg fdg f/e/d/f/g/e/|"Am"c/B/A/B/c/B/ Ac/d/e/d/ cA:|

